/* XPM */
static char * close_prelight_xpm[] = {
"24 26 4 1",
" 	c None",
".	c #0E142C",
"+	c #c2c4ca",
"@	c #242C44",
"@@@@@@@@@@@@@@@@@@@@@@@@",
"........................",
"........................",
"........................",
"........................",
"........................",
"........................",
"........................",
"........................",
"........++....++........",
"........+++..+++........",
".........++++++.........",
"..........++++..........",
"..........++++..........",
".........++++++.........",
"........+++..+++........",
"........++....++........",
"........................",
"........................",
"........................",
"........................",
"........................",
"........................",
"........................",
"........................",
"........................"};
