/* XPM */
static char * maximize_toggled_prelight_xpm[] = {
"24 26 4 1",
" 	c None",
".	c #222144",
"+	c #c7bda3 s active_color_1",
"@	c #c7bda3",
"@@@@@@@@@@@@@@@@@@@@@@@@",
"........................",
"........................",
"........................",
"........................",
"........................",
"........................",
"........................",
"........................",
"........++++++++........",
"........++++++++........",
"........++....++........",
"........++....++........",
"........++....++........",
"........++....++........",
"........++++++++........",
"........++++++++........",
"........................",
"........................",
"........................",
"........................",
"........................",
"........................",
"........................",
"........................",
"........................"};
