/* XPM */
static char * stick_active_xpm[] = {
"24 26 4 1",
" 	c None",
".	c #0b0c0f",
"+	c #c2c2c3",
"@@@@@@@@@@@@@@@@@@@@@@@@",
"........................",
"........................",
"........................",
"........................",
"........................",
"........................",
"........................",
"........................",
"...........++...........",
".........++++++.........",
".........++..++.........",
"........++....++........",
"........++....++........",
".........++..++.........",
".........++++++.........",
"...........++...........",
"........................",
"........................",
"........................",
"........................",
"........................",
"........................",
"........................",
"........................",
"........................"};
