/* XPM */
static char * maximize_prelight_xpm[] = {
"24 26 4 1",
" 	c None",
".	c #0d090f",
"+	c #949396",
"@	c #0d090f",
"@@@@@@@@@@@@@@@@@@@@@@@@",
"........................",
"........................",
"........................",
"........................",
"........................",
"........................",
"........................",
"........................",
"........++++++++........",
"........++++++++........",
"........++....++........",
"........++....++........",
"........++....++........",
"........++....++........",
"........++++++++........",
"........++++++++........",
"........................",
"........................",
"........................",
"........................",
"........................",
"........................",
"........................",
"........................",
"........................"};
