/* XPM */
static char * stick_active_xpm[] = {
"24 26 4 1",
" 	c None",
".	c #0d070d",
"+	c #c2c1c2",
"@@@@@@@@@@@@@@@@@@@@@@@@",
"........................",
"........................",
"........................",
"........................",
"........................",
"........................",
"........................",
"........................",
"...........++...........",
".........++++++.........",
".........++..++.........",
"........++....++........",
"........++....++........",
".........++..++.........",
".........++++++.........",
"...........++...........",
"........................",
"........................",
"........................",
"........................",
"........................",
"........................",
"........................",
"........................",
"........................"};
