/* XPM */
static char * maximize_toggled_prelight_xpm[] = {
"24 26 4 1",
" 	c None",
".	c #07040E",
"+	c #929195",
"@	c #07040E",
"@@@@@@@@@@@@@@@@@@@@@@@@",
"........................",
"........................",
"........................",
"........................",
"........................",
"........................",
"........................",
"........................",
"........++++++++........",
"........++++++++........",
"........++....++........",
"........++....++........",
"........++....++........",
"........++....++........",
"........++++++++........",
"........++++++++........",
"........................",
"........................",
"........................",
"........................",
"........................",
"........................",
"........................",
"........................",
"........................"};
