/* XPM */
static char * shade_prelight_xpm[] = {
"24 26 4 1",
" 	c None",
".	c #1c2d39",
"+	c #9ba2a8",
"@	c #1c2d39",
"@@@@@@@@@@@@@@@@@@@@@@@@",
"........................",
"........................",
"........................",
"........................",
"........................",
"........................",
"........................",
"........................",
"...........++...........",
"..........++++..........",
".........++++++.........",
"........++++++++........",
".......+++.++.+++.......",
"...........++...........",
"...........++...........",
"...........++...........",
"........................",
"........................",
"........................",
"........................",
"........................",
"........................",
"........................",
"........................",
"........................"};
